X:1
T:Title
%%score { ( 1 3 4 ) | ( 2 5 ) }
L:1/8
Q:1/4=100
M:4/4
K:Bb
V:1 treble nm="Grand Piano"
V:3 treble 
V:4 treble 
V:2 bass 
V:5 bass 
V:1
 [DF]>[DF] [B,D][CE] [DF]2 [DF]2 | [EG]>[FA] [GB][Gc] [Fd]4 | c>c A[CGB] [FAc]2 [FBd]2 | %3
w: Chas.~H.~Gabriel * * * * *|||
 [FAc]>[CGB] [CFA][B,=EG] [A,F]4 | [B,DF]>[B,DF][K:bass] [F,B,D][F,CE][K:treble] [B,DF]2 [B,DF]2 | %5
w: ||
 [B,EG]>[B,FA] [B,GB][Gc] [^Fd]2 A2 | B>B [G=B][GB] [Gc]2 G2 | BAGA [DB]4 | F6 z2 | B4 B4 | %10
w: |||||
 B4 z2 G2 | d->[^Fd-] [Dd-][Fd-] [Fd]2 z2 | d6 z2 | E>E e-[Ge] d-[Gd]c-[Gc] | B>B Fd ccFc | B8 |] %16
w: ||||||
V:2
 [B,,B,]>[B,,B,] [B,,F,][B,,F,] [B,,B,]2 [B,,B,]2 | [E,B,]>[E,B,] [E,B,][E,B,] [B,,B,]4 | %2
 [F,A,F]>[F,A,F] [F,CF]F, F,2 B,,2 | C,>C, C,C, F,4 | B,,>B,, B,,B,, B,,2 B,,2 | %5
 E,>E, E,[E,G,] [D,A,]2 [^F,D]2 | [G,DG]>[G,DG][K:bass] [F,D][F,D] [E,E]2 [E,CE]2 | %7
 [F,CE][F,CE][F,CE][F,E] [B,,F,]4 | [B,,B,]>[B,,B,] [B,,B,][B,,B,] [B,,B,]2 z A | %9
 [B,,F,]>[B,,F,] [B,,F,][B,,F,] [B,,F,]2 D,2 | E,>E, E,E, z A z G, | %11
 [D,A,]>[D,A,] [^F,A,]A, [D,A,]2 z2 | [G,=B,F]>[G,B,] [G,B,][G,B,] [G,B,]2 [G,B,F]2 | %13
 [C,C]>[C,C] [C,C][C,C] [D,=B,][D,B,][E,C][E,C] | [F,DF]2 DF [F,A,E]2 [F,A,E]2 | %15
 [B,,B,]2 [B,,G,]2 [B,,F,]4 |] %16
V:3
 x8 | x8 | x8 | x8 | x2[K:bass] x2[K:treble] x4 | x8 | x8 | x8 | D>D DD z z/ F/ .[B,DG]2 | %9
 D>D DD D2 [B,F]2 | [B,G]>[B,G] [B,G][B,GA] .[B,GB]2 [B,B]c | ^F2 z2 z4 | z z/ F/ FF z z/ G/ _AG | %13
 G2 .G2 .G2 .G2 | x8 | D2 E2 D4 |] %16
V:4
 x8 | x8 | x8 | x8 | x2[K:bass] x2[K:treble] x4 | x8 | x8 | x8 | z4 D2 z2 | x8 | x8 | x8 | %12
 z4 F2 z2 | x8 | x8 | x8 |] %16
V:5
 x8 | x8 | x8 | x8 | x8 | x8 | x2[K:bass] x6 | x8 | z4 z2 B,,2 | x8 | z4 E,2 E,2 | x8 | x8 | x8 | %14
 z2 [F,B,]2 z4 | x8 |] %16

